ix/sagittarius_bulk.svg

<svg viewBox="0 0 24 24" fill="none" xmlns="http://www.w3.org/2000/svg" height="1em" width="1em">
  <path d="M21.6897 2.71002C21.6097 2.53002 21.4697 2.37999 21.2797 2.29999C21.1897 2.25999 21.0897 2.23999 20.9897 2.23999H11.9897C11.5797 2.23999 11.2397 2.57999 11.2397 2.98999C11.2397 3.39999 11.5797 3.73999 11.9897 3.73999H19.1797L2.45969 20.46C2.16969 20.75 2.16969 21.23 2.45969 21.52C2.60969 21.67 2.79966 21.74 2.98966 21.74C3.17966 21.74 3.36969 21.67 3.51969 21.52L20.2397 4.79999V12C20.2397 12.41 20.5797 12.75 20.9897 12.75C21.3997 12.75 21.7397 12.41 21.7397 12V3C21.7497 2.9 21.7297 2.81002 21.6897 2.71002Z" fill="#292D32"/>
  <path opacity="0.4" d="M17.3991 18.1501C17.2091 18.1501 17.019 18.08 16.8691 17.93L6.06906 7.13004C5.77906 6.84004 5.77906 6.36004 6.06906 6.07004C6.35906 5.78004 6.83906 5.78004 7.12906 6.07004L17.929 16.87C18.219 17.16 18.219 17.64 17.929 17.93C17.779 18.08 17.5891 18.1501 17.3991 18.1501Z" fill="#292D32"/>
</svg>

<svg viewBox="0 0 24 24" fill="none" xmlns="http://www.w3.org/2000/svg" height="1em" width="1em">
  <path d="M21.69 2.71a.783.783 0 0 0-.41-.41.717.717 0 0 0-.29-.06h-9c-.41 0-.75.34-.75.75s.34.75.75.75h7.19L2.46 20.46c-.29.29-.29.77 0 1.06.15.15.34.22.53.22s.38-.07.53-.22L20.24 4.8V12c0 .41.34.75.75.75s.75-.34.75-.75V3c.01-.1-.01-.19-.05-.29Z" fill="#292D32"/>
  <path opacity=".4" d="M17.4 18.15a.74.74 0 0 1-.53-.22L6.07 7.13a.754.754 0 0 1 0-1.06c.29-.29.77-.29 1.06 0l10.799 10.8c.29.29.29.77 0 1.06-.15.15-.34.22-.53.22Z" fill="#292D32"/>
</svg>
